;FLAVOR:Marlin
;TIME:2301
;Filament used:1.49584m
;Layer height: 0.15
;MINX:82.2
;MINY:73.2
;MINZ:0.24
;MAXX:137.799
;MAXY:146.8
;MAXZ:3.89
                                   
;Creality Print GCode Generated by CXEngine:NO_MAGE_VERSION_GIT_HEAD_BRANCH
;CXEngine Release Time:2022-09-30 09:53:04
;Gcode Generated Time:2023-10-18 12:42:55
;----------Machine Config--------------
;Machine Name:Ender-3 V2
;Machine Height:250
;Machine Width:220
;Machine Depth:220
;Material name:cxsw
;Number of Extruders:1
;ExtruderParams[0] Nozzle Diameter1000
;----------Profile Config---------------
;Engine Version:275f99b
;Engine Release Time:2022-09-30 09:42:18
;Layer Height:0.15
;Wall Thickness:0.8
;Top/Bottom Thickness:1
;Out Wall Line Width:0.4
;Inner Wall Line Width:0.4
;Inital Layer Height:150
;Wall Line Count:2
;Infill Line Distance:4
;Infill Pattern:grid
;Infill Sparse Density:20
;Infill Wipe Distance:0
;Print Temperature:200
;Bed Temperature:60
;Support Enable:false
;Support Density:30
;Support Angle:60
;Adhesion Type:simpleraft
;machine is belt:false
;machine belt offset:10
;machine belt offset Y:0
;Raft Base Line Spacing:1.6
;Wait Heatup Sync:true
;----------Shell Config----------------
;Outer Wall Wipe Distance:200
;Outer Inset First:false
;Infill Before Walls:false
;Infill Overlap:0.16
;Fill Gaps Between Walls:everywhere
;Minimum Infill Area:1
;Top Surface Skin Layer:0
;Top Layers:4
;Z Seam Alignment:sharpest_corner
;Seam Corner Preference:z_seam_corner_inner
;Z Seam X:110
;Z Seam Y:110
;Horizontal Expansion:0
;Top/Bottom Pattern:zigzag
;Ironing Pattern:zigzag
;Vase Model:false
;----------Support Config----------------
;Support Type:everywhere
;Support Pattern:zigzag
;Support Infill Layer Thickness:0.15
;Minimum Support Area:5
;Enable Support Roof:false
;Support Roof Thickness:0.8
;Support Roof Pattern:lines
;Connect Support Lines:0
;Connect Support ZigZags:1
;Minimum Support X/Y Distance:0.2
;Support Line Distance:1.33
; ---------PrintSpeed & Travel----------
;Enable Print Cool:true
;Avoid Printed Parts Traveling:true
;Enable Retraction:true
;Retraction Distance:8
;Retraction Speed:100
;Retraction Prime Speed:100
;Maximum Retraction Count:100
;Minimum Extrusion Distance Window:1
;Z Hop When Retracted:false
;Z Hop Height:0.2
;Retract Before Outer Wall:true
;Print Speed:50
;Infill Speed:50

;Prime Tower Speed:50
;Travel Speed:120
;Initial Layer Speed:25
;Skirt/Brim Speed:25
;Combing Mode:infill
; --------SpecialModel&Mesh Fixes--------
;Union Overlapping Volum:true
;Remove All Holes:false
;Maximum Travel Resolution:0.6
;Maximum Deviation:0.05
;Maximum Model Angle:0.872665
;IS Mold Print:false
;Make Overhang Printable:false
;Enable Coasting:false
;Coasting Volumes:0.06
;Coasting Speed:0.9
;Raft AirGap:0.25
;Layer0 ZOverLap:0.13
;---------------------End of Head--------------------------
M140 S60
M105
M104 S200
M105
M109 S200
M105
M190 S60
M82 ;absolute extrusion mode
M220 S100 ;Reset Feedrate
M221 S100 ;Reset Flowrate

G28 ;Home

G92 E0 ;Reset Extruder
G1 Z2.0 F3000 ;Move Z Axis up
G1 X10.1 Y20 Z0.28 F5000.0 ;Move to start position
G1 X10.1 Y145.0 Z0.28 F1500.0 E15 ;Draw the first line
G1 X10.4 Y145.0 Z0.28 F5000.0 ;Move to side a little
G1 X10.4 Y20 Z0.28 F1500.0 E30 ;Draw the second line
G92 E0  ;Reset Extruder
G1 E-1.0000 F1800 ;Retract a bit
G1 Z2.0 F3000 ;Move Z Axis up
G1 E0.0000 F1800 

G92 E0
G92 E0
G1 F6000 E-8

;LAYER_COUNT:20

;LAYER:-4
M107
G0 F7200 X83.2 Y122.348 Z0.24
;TYPE:SUPPORT-INTERFACE
G1 F6000 E0
G1 F1200 X83.2 Y139.647 E1.51897
G1 X83.018 Y138.964 E1.58103
G1 X82.881 Y138.177 E1.65118
G1 X82.8 Y136.988 E1.75582
G1 X82.803 Y124.951 E2.81275
G1 X82.848 Y124.102 E2.8874
G1 X82.972 Y123.259 E2.96222
G1 X83.16 Y122.468 E3.03361
G1 X83.417 Y121.699 E3.10481
G1 X83.746 Y120.95 E3.17664
G1 X84.157 Y120.201 E3.25166
G1 X84.619 Y119.518 E3.32406
G1 X84.8 Y119.294 E3.34935
G1 X84.8 Y142.714 E5.40578
G1 X85.297 Y143.294 E5.47285
G1 X85.902 Y143.882 E5.54693
G1 X86.4 Y144.285 E5.60318
G1 X86.4 Y117.711 E7.93656
G1 X86.996 Y117.287 E8.00078
G1 X87.685 Y116.881 E8.071
G1 X88 Y116.732 E8.1016
G1 X88 Y145.275 E10.60787
G1 X88.691 Y145.579 E10.67416
G1 X89.464 Y145.838 E10.74574
G1 X89.6 Y145.87 E10.75801
G1 X89.6 Y116.136 E13.36885
G1 X90.779 Y115.832 E13.47576
G1 X91.2 Y115.667 E13.51547
G1 X91.2 Y146.156 E16.19261
G1 X91.953 Y146.197 E16.25882
G1 X92.8 Y146.197 E16.3332
G1 X92.8 Y114.685 E19.10016
G1 X93.231 Y114.279 E19.15215
G1 X93.7 Y113.713 E19.2167
G1 X94.091 Y113.093 E19.28106
G1 X94.4 Y112.43 E19.34529
G1 X94.4 Y146.197 E22.31026
G1 X96 Y146.197 E22.45075
G1 X96 Y78.487 E28.39614
G1 X96.157 Y78.201 E28.42479
G1 X96.619 Y77.518 E28.4972
G1 X97.118 Y76.902 E28.56681
G1 X97.6 Y76.405 E28.6276
G1 X97.6 Y146.197 E34.75581
G1 X99.2 Y146.197 E34.8963
G1 X99.2 Y75.166 E41.1333
G1 X99.685 Y74.881 E41.18269
G1 X100.461 Y74.515 E41.25803
G1 X100.8 Y74.39 E41.28976
G1 X100.8 Y146.197 E47.5949
G1 X102.4 Y146.197 E47.73539
G1 X102.4 Y73.953 E54.0789
G1 X102.814 Y73.881 E54.1158
G1 X104 Y73.8 E54.22018
G1 X104 Y146.198 E60.57721
G1 X105.6 Y146.198 E60.7177
G1 X105.6 Y73.801 E67.07465
G1 X107.2 Y73.801 E67.21514
G1 X107.2 Y146.198 E73.57209
G1 X108.8 Y146.198 E73.71258
G1 X108.8 Y73.802 E80.06944
G1 X110.4 Y73.802 E80.20993
G1 X110.4 Y146.198 E86.56678
G1 X112 Y146.198 E86.70728
G1 X112 Y73.802 E93.06413
G1 X113.6 Y73.803 E93.20462
G1 X113.6 Y146.198 E99.56139
G1 X115.2 Y146.198 E99.70189
G1 X115.2 Y73.803 E106.05866
G1 X116.047 Y73.803 E106.13303
G1 X116.8 Y73.844 E106.19924
G1 X116.8 Y146.199 E112.5525
G1 X118.4 Y146.199 E112.69299
G1 X118.4 Y74.13 E119.02114
G1 X118.536 Y74.162 E119.03341
G1 X119.314 Y74.422 E119.10543
G1 X120 Y74.723 E119.17121
G1 X120 Y146.199 E125.44729
G1 X121.6 Y146.199 E125.58778
G1 X121.6 Y75.715 E131.77675
G1 X122.097 Y76.117 E131.83288
G1 X122.698 Y76.7 E131.9064
G1 X123.2 Y77.286 E131.97415
G1 X123.2 Y146.199 E138.02518
G1 X124.8 Y146.199 E138.16567
G1 X124.8 Y80.354 E143.94731
G1 X124.982 Y81.037 E144.00937
G1 X125.117 Y81.806 E144.07793
G1 X125.199 Y82.969 E144.1803
G1 X125.2 Y110.336 E146.58331
G1 X125.244 Y111.042 E146.64542
G1 X125.383 Y111.763 E146.7099
G1 X125.612 Y112.459 E146.77423
G1 X125.925 Y113.122 E146.83861
G1 X126.321 Y113.74 E146.90306
G1 X126.4 Y113.835 E146.91391
G1 X126.4 Y146.199 E149.75569
G1 X127.994 Y146.2 E149.89565
G1 X128 Y146.2 E149.89618
G1 X128 Y115.27 E152.61204
G1 X128.57 Y115.578 E152.66893
G1 X129.249 Y115.841 E152.73287
G1 X129.6 Y115.929 E152.76464
G1 X129.6 Y146.047 E155.4092
G1 X129.963 Y145.982 E155.44159
G1 X130.773 Y145.766 E155.51519
G1 X131.2 Y145.603 E155.55533
G1 X131.2 Y116.384 E158.12095
G1 X131.314 Y116.422 E158.1315
G1 X132.039 Y116.74 E158.20102
G1 X132.799 Y117.157 E158.27714
G0 F7200 X132.8 Y117.158
G1 F1200 X132.8 Y144.834 E160.70728
G1 X133.004 Y144.713 E160.7281
G1 X133.665 Y144.242 E160.79937
G1 X134.3 Y143.698 E160.87279
G1 X134.882 Y143.098 E160.94619
G1 X135.387 Y142.475 E161.01661
G1 X135.851 Y141.787 E161.08947
G1 X136 Y141.516 E161.11663
G1 X136 Y120.483 E162.96347
G1 X135.717 Y120.001 E163.01255
G1 X135.243 Y119.336 E163.08425
G1 X134.698 Y118.7 E163.1578
G1 X134.4 Y118.411 E163.19425
G1 X134.4 Y143.595 E165.40557
G0 F600 X134.4 Y143.595 Z0.47
G0 F7200 X137.598 Y126.284
;TIME_ELAPSED:100.152699

;LAYER:-3
;TYPE:SUPPORT
G1 F1800 X94.401 Y83.087 E170.07884
G1 X94.403 Y82.951 E170.08924
G1 X94.45 Y82.055 E170.15788
G1 X94.491 Y81.763 E170.18044
G1 X137.592 Y124.864 E174.84332
G1 X137.599 Y124.955 E174.8503
G1 X137.598 Y127.698 E175.06013
G1 X94.401 Y84.502 E179.73334
G1 X94.401 Y85.916 E179.84151
G1 X137.598 Y129.112 E184.51472
G1 X137.598 Y130.526 E184.62289
G1 X94.401 Y87.33 E189.2961
G1 X94.401 Y88.744 E189.40427
G1 X137.597 Y131.94 E194.07743
G1 X137.597 Y133.354 E194.1856
G1 X94.401 Y90.158 E198.85875
G1 X94.401 Y91.573 E198.967
G1 X137.597 Y134.768 E203.6401
G1 X137.597 Y136.183 E203.74835
G1 X94.4 Y92.986 E208.42161
G1 X94.4 Y94.4 E208.52978
G1 X137.569 Y137.569 E213.20002
G1 X137.55 Y137.945 E213.22882
G1 X137.422 Y138.812 E213.29586
G1 X137.417 Y138.831 E213.29736
G1 X94.4 Y95.815 E217.9511
G1 X94.4 Y97.229 E218.05927
G1 X137.121 Y139.949 E222.68098
G1 X136.955 Y140.449 E222.72129
G1 X136.726 Y140.969 E222.76475
G1 X94.4 Y98.643 E227.34379
G1 X94.4 Y100.057 E227.45196
G1 X136.244 Y141.901 E231.97885
G1 X136.191 Y141.999 E231.98737
G1 X135.711 Y142.711 E232.05306
G1 X135.679 Y142.75 E232.05692
G1 X94.4 Y101.471 E236.52268
G1 X94.4 Y102.885 E236.63085
G1 X135.032 Y143.517 E241.02662
G1 X134.576 Y143.988 E241.07677
G1 X134.312 Y144.212 E241.10326
G1 X94.4 Y104.299 E245.42119
G1 X94.4 Y105.713 E245.52936
G1 X133.52 Y144.834 E249.76161
G1 X133.221 Y145.05 E249.78983
G1 X132.654 Y145.382 E249.84009
G1 X94.4 Y107.128 E253.9786
G1 X94.4 Y108.542 E254.08676
G1 X131.697 Y145.84 E258.12179
G1 X130.896 Y146.148 E258.18744
G1 X130.654 Y146.21 E258.20655
G1 X94.4 Y109.956 E262.12869
G1 X94.4 Y110.323 E262.15676
G1 X94.362 Y110.962 E262.20573
G1 X94.303 Y111.273 E262.22995
G1 X129.498 Y146.468 E266.03752
G1 X129.235 Y146.516 E266.05797
G1 X128.2 Y146.585 E266.13732
G1 X93.985 Y112.37 E269.83887
G1 X93.739 Y112.901 E269.88364
G1 X93.492 Y113.291 E269.91895
G1 X126.799 Y146.598 E273.52227
G1 X125.384 Y146.598 E273.63051
G1 X92.862 Y114.076 E277.1489
G1 X92.442 Y114.473 E277.19311
G1 X92.096 Y114.723 E277.22577
G1 X123.97 Y146.598 E280.67411
G1 X122.556 Y146.598 E280.78228
G1 X91.196 Y115.238 E284.17496
G1 X90.656 Y115.451 E284.21937
G1 X90.13 Y115.586 E284.26091
G1 X121.142 Y146.598 E287.61594
G1 X119.728 Y146.598 E287.72411
G1 X89.014 Y115.884 E291.0469
G1 X88.308 Y116.144 E291.10445
G1 X88.002 Y116.287 E291.13029
G1 X118.313 Y146.597 E294.40943
G1 X116.898 Y146.597 E294.51768
G1 X87.075 Y116.774 E297.74408
G1 X86.779 Y116.95 E297.77042
G1 X86.229 Y117.342 E297.82209
G1 X115.484 Y146.597 E300.98704
G1 X114.07 Y146.597 E301.09521
G1 X85.456 Y117.983 E304.19081
G1 X85.424 Y118.012 E304.19411
G1 X84.818 Y118.636 E304.26066
G1 X84.762 Y118.703 E304.26734
G1 X112.656 Y146.597 E307.28505
G1 X111.242 Y146.597 E307.39322
G1 X84.146 Y119.501 E310.32459
G1 X83.81 Y120.001 E310.37068
G1 X83.604 Y120.374 E310.40327
G1 X109.827 Y146.596 E313.24015
G1 X108.412 Y146.596 E313.3484
G1 X83.143 Y121.326 E316.08218
G1 X83.045 Y121.551 E316.10095
G1 X82.774 Y122.364 E316.16651
G1 X82.771 Y122.369 E316.16696
G1 X106.998 Y146.596 E318.78795
G1 X105.584 Y146.596 E318.89612
G1 X82.525 Y123.537 E321.39076
G1 X82.45 Y124.055 E321.4308
G1 X82.409 Y124.835 E321.49055
G1 X104.17 Y146.596 E323.84476
G1 X102.756 Y146.596 E323.95293
G1 X82.402 Y126.243 E326.15487
G1 X82.401 Y127.656 E326.26296
G1 X101.341 Y146.596 E328.31199
G1 X99.926 Y146.595 E328.42023
G1 X82.401 Y129.071 E330.31612
G1 X82.401 Y130.484 E330.42421
G1 X98.512 Y146.595 E332.16718
G1 X97.098 Y146.595 E332.27535
G1 X82.401 Y131.898 E333.86534
G1 X82.4 Y133.312 E333.97351
G1 X95.684 Y146.595 E335.41059
G1 X94.27 Y146.595 E335.51875
G1 X82.399 Y134.725 E336.80296
G1 X82.399 Y136.139 E336.91113
G1 X92.855 Y146.595 E338.04231
G1 X91.951 Y146.597 E338.11147
G1 X91.413 Y146.567 E338.15269
G1 X82.439 Y137.593 E339.12354
G1 X82.483 Y138.226 E339.17208
G1 X82.628 Y139.055 E339.23646
G1 X82.851 Y139.892 E339.30272
G1 X83.144 Y140.692 E339.3679
G1 X83.526 Y141.502 E339.43641
G1 X83.535 Y141.518 E339.43781
G1 X87.456 Y145.439 E339.862
G1 X87.762 Y145.608 E339.88874
G1 X88.545 Y145.952 E339.95417
G1 X89.357 Y146.224 E340.01968
G1 X89.748 Y146.316 E340.05041
G1 X82.679 Y139.248 E340.81511
;;retract;;
G1 F6000 E332.81511
G0 F7200 X136.848 Y121.292
G1 F6000 E340.81511
G1 F1800 X131.721 Y116.164 E341.36983
G1 X132.227 Y116.386 E341.4121
G1 X132.999 Y116.81 E341.47948
G1 X133.726 Y117.301 E341.54659
G1 X134.363 Y117.817 E341.6093
G1 X134.988 Y118.424 E341.67595
G1 X135.559 Y119.09 E341.74306
G1 X136.054 Y119.785 E341.80833
G1 X136.474 Y120.498 E341.87163
G1 X136.856 Y121.308 E341.94014
G1 X137.149 Y122.108 E342.00531
G1 X137.372 Y122.945 E342.07158
G1 X137.432 Y123.29 E342.09836
G1 X129.678 Y115.536 E342.93723
G1 X129.37 Y115.459 E342.96152
G1 X128.738 Y115.214 E343.01337
G1 X128.138 Y114.89 E343.06553
G1 X127.582 Y114.491 E343.11789
G1 X127.082 Y114.027 E343.17007
G1 X126.644 Y113.503 E343.22231
G1 X126.276 Y112.928 E343.27454
G1 X125.984 Y112.311 E343.32675
G1 X125.771 Y111.662 E343.37901
G1 X125.762 Y111.62 E343.38229
G1 X94.721 Y80.579 E346.74046
G1 X94.774 Y80.364 E346.7574
G1 X95.045 Y79.551 E346.82296
G1 X95.063 Y79.507 E346.82659
G1 X125.599 Y110.042 E350.13008
G1 X125.599 Y108.628 E350.23824
G1 X95.511 Y78.541 E353.49326
G1 X95.81 Y78.001 E353.54048
G1 X96.041 Y77.656 E353.57224
G1 X125.599 Y107.214 E356.76997
G1 X125.599 Y105.8 E356.87814
G1 X96.645 Y76.846 E360.01053
G1 X96.818 Y76.636 E360.03134
G1 X97.325 Y76.112 E360.08712
G1 X125.599 Y104.385 E363.14588
G1 X125.599 Y102.971 E363.25405
G1 X98.077 Y75.45 E366.23146
G1 X98.09 Y75.441 E366.23267
G1 X98.779 Y74.95 E366.2974
G1 X98.912 Y74.871 E366.30923
G1 X125.599 Y101.557 E369.19631
G1 X125.599 Y100.143 E369.30448
G1 X99.827 Y74.371 E372.09262
G1 X100.308 Y74.144 E372.13331
G1 X100.824 Y73.954 E372.17537
G1 X125.599 Y98.729 E374.85565
G1 X125.599 Y97.314 E374.9639
G1 X101.918 Y73.634 E377.52577
G1 X101.945 Y73.628 E377.52789
G1 X102.765 Y73.484 E377.59158
G1 X103.156 Y73.457 E377.62156
G1 X125.598 Y95.899 E380.04944
G1 X125.598 Y94.485 E380.15761
G1 X104.513 Y73.4 E382.43869
G1 X105.927 Y73.4 E382.54686
G1 X125.598 Y93.071 E384.67497
G1 X125.598 Y91.657 E384.78314
G1 X107.342 Y73.401 E386.75816
G1 X108.756 Y73.401 E386.86633
G1 X125.598 Y90.243 E388.68838
G1 X125.598 Y88.828 E388.79662
G1 X110.171 Y73.401 E390.46559
G1 X111.585 Y73.401 E390.57376
G1 X125.598 Y87.414 E392.08976
G1 X125.598 Y86 E392.19793
G1 X112.999 Y73.401 E393.56095
G1 X114.414 Y73.402 E393.66919
G1 X125.598 Y84.586 E394.87913
G1 X125.598 Y83.172 E394.9873
G1 X115.829 Y73.402 E396.04422
G1 X116.049 Y73.403 E396.06105
G1 X116.952 Y73.451 E396.13022
G1 X117.35 Y73.51 E396.161
G1 X125.496 Y81.655 E397.04222
G1 X125.372 Y80.945 E397.09736
G1 X125.149 Y80.108 E397.16362
G1 X124.856 Y79.308 E397.22879
G1 X124.474 Y78.498 E397.2973
G1 X124.054 Y77.785 E397.3606
G1 X123.559 Y77.09 E397.42588
G1 X122.988 Y76.424 E397.49299
G1 X122.363 Y75.817 E397.55964
G1 X121.726 Y75.301 E397.62235
G1 X120.999 Y74.81 E397.68946
G1 X120.227 Y74.386 E397.75683
G1 X119.455 Y74.048 E397.8213
G1 X119.227 Y73.972 E397.83969
G1 X125.024 Y79.769 E398.46684
G0 F600 X125.024 Y79.769 Z0.62
G0 F7200 X118.748 Y73.6
;TIME_ELAPSED:207.743450

;LAYER:-2
;TYPE:SUPPORT-INTERFACE
G1 F2400 X101.276 Y73.6 E398.90268
G1 X101.892 Y73.435 E398.91859
G1 X102.744 Y73.285 E398.94017
G1 X103.988 Y73.2 E398.97127
G1 X116.058 Y73.203 E399.27236
G1 X116.976 Y73.253 E399.29529
G1 X117.85 Y73.381 E399.31733
G1 X118.706 Y73.586 E399.33928
G1 X119.537 Y73.865 E399.36115
G1 X119.847 Y74 E399.36958
G1 X100.143 Y74 E399.8611
G1 X99.419 Y74.342 E399.88108
G1 X99.321 Y74.4 E399.88392
G1 X120.672 Y74.4 E400.41652
G1 X121.094 Y74.633 E400.42854
G1 X121.344 Y74.8 E400.43604
G1 X98.645 Y74.8 E401.00227
G1 X98.085 Y75.2 E401.01944
G1 X121.92 Y75.2 E401.61401
G1 X122.414 Y75.6 E401.62986
G1 X97.597 Y75.6 E402.24892
G1 X97.292 Y75.861 E402.25894
G1 X97.157 Y76 E402.26377
G1 X122.84 Y76 E402.90444
G1 X123.139 Y76.292 E402.91486
G1 X123.233 Y76.4 E402.91843
G1 X96.769 Y76.4 E403.57858
G1 X96.673 Y76.498 E403.582
G1 X96.429 Y76.8 E403.59169
G1 X123.576 Y76.8 E404.26887
G1 X123.709 Y76.957 E404.27401
G1 X123.884 Y77.2 E404.28147
G1 X96.109 Y77.2 E404.97433
G1 X95.84 Y77.6 E404.98635
G1 X124.17 Y77.6 E405.69304
